src/icons/files/json.svg

<?xml version="1.0" standalone="no"?><!-- Generator: Gravit.io --><svg xmlns="http://www.w3.org/2000/svg" xmlns:xlink="http://www.w3.org/1999/xlink" style="isolation:isolate" viewBox="0 0 24 24" width="24" height="24"><path d=" M 6 6.928203 L 12 10.392305 L 12 12.124356 L 10.520974 11.27044 L 6 8.660254 L 6 6.928203 Z " fill="rgb(51,125,242)"/><path d=" M 18 6.928203 L 12 10.392305 L 12 12.124356 L 13.479026 11.27044 L 18 8.660254 L 18 6.928203 Z " fill="rgb(8,89,219)"/><path d=" M 12 3.464102 L 6 6.928203 L 12 10.392305 L 18 6.928203 L 12 3.464102 Z " fill="rgb(11,70,164)"/><path d=" M 6 10.392305 L 12 13.856406 L 12 15.588457 L 10.520974 14.734541 L 6 12.124356 L 6 10.392305 Z " fill="rgb(51,125,242)"/><path d=" M 18 10.392305 L 12 13.856406 L 12 15.588457 L 13.479026 14.734541 L 18 12.124355 L 18 10.392305 Z " fill="rgb(8,89,219)"/><path d=" M 6 13.856407 L 12 17.320508 L 12 19.052559 L 10.520974 18.198643 L 6 15.588457 L 6 13.856407 Z " fill="rgb(51,125,242)"/><path d=" M 18 13.856406 L 12 17.320508 L 12 19.052559 L 13.479026 18.198643 L 18 15.588457 L 18 13.856406 Z " fill="rgb(8,89,219)"/></svg>

<svg xmlns="http://www.w3.org/2000/svg" width="24" height="24" viewBox="0 0 24 24"><g transform="translate(0 1.536)"><path d="M6,6.928l6,3.464v1.732l-1.479-.854L6,8.66Z" fill="#337df2"/><path d="M18,6.928l-6,3.464v1.732l1.479-.854L18,8.66Z" fill="#0859db"/><path d="M12,3.464,6,6.928l6,3.464,6-3.464Z" fill="#0b46a4"/><path d="M6,10.392l6,3.464v1.732l-1.479-.854L6,12.124Z" fill="#337df2"/><path d="M18,10.392l-6,3.464v1.732l1.479-.854L18,12.124Z" fill="#0859db"/><path d="M6,13.856l6,3.464v1.732L10.521,18.2,6,15.589Z" fill="#337df2"/><path d="M18,13.856,12,17.32v1.732l1.479-.854L18,15.589Z" fill="#0859db"/><rect width="24" height="24" transform="translate(0 -1.536)" fill="none"/></g></svg>
